X:1
T:Title
%%score { ( 1 3 ) | 2 }
L:1/8
M:4/4
K:Eb
V:1 treble nm="Grand Piano"
V:3 treble 
V:2 bass 
V:1
 z4 z2[Q:1/4=100] B,B, | EEEE E2 G[FA] | [GB][GB][Ac][Ac] [GB]2 G>F | E2 E2 G2 G2 | F6 B,B, | %5
 EEEE E2 G[FA] | [GB][GB][Ac][Ac] [GB]2 ce | B[DAB][EGB][CFA] [B,EG]2 [A,DF]2 |[M:3/4] [G,B,E]6 | %9
[M:1/4] [B,EG][B,FA] |[M:4/4] [GB]2 [GB]>[GB] [GB][Ge][EG][Ac] | B-[GB-][EB-][FB-] [GB]2 [Gc][GB] | %12
 [DFA]2 [DFA]>[DFA] [DFA][DAc][EGB][B,FA] | B,B,B,[FA] [GB]2 [GB][GB] | %14
 [Ge][Ae][Be][Ac] [GB][GB]GE | F[EG][EA][EB] [Ec]2 de | B2 [DAB]>[EGB] [DFB][CDA][B,DG][A,B,F] | %17
[M:3/4] [G,B,E]6 |] %18
V:2
 z4 z2 [E,G,][E,G,] | [E,G,B,][E,G,B,][E,A,C][E,A,C] [E,G,B,]2 [E,B,E][E,B,] | %2
 [E,E][E,E][E,E][E,E] [E,E]2 [E,B,E]>[E,A,B,] | [E,G,B,]2 [E,G,B,]2 [E,B,E]2 [G,B,E]2 | %4
 [B,D]6 [B,,A,][D,A,] | [E,G,B,][E,G,B,][E,A,C][E,A,C] [E,G,B,]2 [E,B,E][E,B,] | %6
 [E,E][E,E][E,E][E,E] [E,E]2[K:treble] [A,EA][A,CA] | [G,E]F,E,A,, B,,2 B,,2 |[M:3/4] E,6 | %9
[M:1/4] E,E, |[M:4/4] [E,E]2 [E,E]>[E,E] [E,E][E,B,][E,B,][E,E] | %11
 [E,E][E,E]G,[B,D] [E,E]2 [E,E][E,E] | B,,2 B,,>B,, B,,B,,B,,B,, | E,E,E,[E,B,] [E,E]2 [E,E][E,E] | %14
 [E,B,][F,B,][G,B,][A,E] [E,E][E,E][E,B,E][E,G,B,] | %15
 [D,A,D][_D,B,][C,A,][B,,G,] [A,,A,]2 [A,B,E][A,CE] | [G,E]2 F,>E, B,,B,,B,,B,, |[M:3/4] E,6 |] %18
V:3
 x8 | x8 | x8 | x8 | x8 | x8 | x8 | x8 |[M:3/4] x6 |[M:1/4] x2 |[M:4/4] x8 | .G2 z2 z4 | x8 | %13
 [EG]4 z4 | x8 | x8 | x8 |[M:3/4] x6 |] %18

